icons/jar.svg

<svg xmlns="http://www.w3.org/2000/svg" viewBox="0 0 32 32"><path fill="#f44336" d="M22 10h2v4h-2z"/><path fill="#f44336" d="M28 2H4a2 2 0 0 0-2 2v24a2 2 0 0 0 2 2h24a2 2 0 0 0 2-2V4a2 2 0 0 0-2-2Zm-2 12a2 2 0 0 1-2 2h-2v4a4 4 0 0 1-4 4h-8a4 4 0 0 1-4-4V8h18a2 2 0 0 1 2 2Z"/></svg>

<svg xmlns="http://www.w3.org/2000/svg" viewBox="0 0 32 32">
  <g>
    <rect x="22" y="10" width="2" height="4" style="fill: #f44336"/>
    <path d="M28,2H4A2,2,0,0,0,2,4V28a2,2,0,0,0,2,2H28a2,2,0,0,0,2-2V4A2,2,0,0,0,28,2ZM26,14h0a2,2,0,0,1-2,2H22v4a4,4,0,0,1-4,4H10a4,4,0,0,1-4-4V8H24a2,2,0,0,1,2,2Z" style="fill: #f44336"/>
  </g>
</svg>
